!!!OTL: IM FELDE SCHLEICH ICH STILL UND WILD
!!!ARE: Europa, Mitteleuropa, Deutschland
!!!SCT: B0594
!!!YEM: Copyright 1995, estate of Helmut Schaffrath.
**kern
*ICvox
*Ivox
*M6/8
*k[b-e-a-]
*E-:
{8B-
=1
4e-
8e-
4g
8g
=2
4b-
8b-
4g}
{8g
=3
4e-
8e-
4f
8f
=4
2g
8r}
{8b-
=5
4b-
8f
4f
8b-
=6
4b-
8g
4g}
{8ee-
=7
4b-
8g
4e-
8f
=8
2g
8r}
==
!!!AGN: Staende -, Jaeger - Lied
!!!ONB: ESAC (Essen Associative Code) Database: BOEHME
!!!AMT: compound duple
!!!AIN: vox
!!!EED: Helmut Schaffrath
!!!EEV: 1.0
*-
